T: Green Forever
M: 6/8
L: 1/8
K: Gmaj
B2 G AGE | DGG AGE | D2 G A^GA | B/c/dG edc |B2 G AGE | DGG AGE | D2 G A^GA | BGF G2 :|Bdd Acc | Bdd BGE | D2 G A^GA | BA^G AA/B/c |[1 B2 d Acc | B2 d BGE | D2 G A^GA | BGF G2 :|[2 BGG AGE | DGG AGE | DGG A^GA | BGG G2 |]
